assets/img/icons/duotone-icons/Devices/CPU#2.svg

<?xml version="1.0" encoding="UTF-8"?>
<svg width="24px" height="24px" viewBox="0 0 24 24" version="1.1" xmlns="http://www.w3.org/2000/svg" xmlns:xlink="http://www.w3.org/1999/xlink">
    <!-- Generator: Sketch 52.2 (67145) - http://www.bohemiancoding.com/sketch -->
    <title>Stockholm-icons / Devices / CPU#2</title>
    <desc>Created with Sketch.</desc>
    <g id="Stockholm-icons-/-Devices-/-CPU#2" stroke="none" stroke-width="1" fill="none" fill-rule="evenodd">
        <rect id="bound" x="0" y="0" width="24" height="24"></rect>
        <rect id="Rectangle" fill="#335EEA" opacity="0.3" x="3" y="3" width="18" height="18" rx="1"></rect>
        <path d="M11,11 L11,13 L13,13 L13,11 L11,11 Z M10,9 L14,9 C14.5522847,9 15,9.44771525 15,10 L15,14 C15,14.5522847 14.5522847,15 14,15 L10,15 C9.44771525,15 9,14.5522847 9,14 L9,10 C9,9.44771525 9.44771525,9 10,9 Z" id="Rectangle-2" fill="#335EEA" opacity="0.3"></path>
        <rect id="Rectangle-3" fill="#335EEA" opacity="0.3" x="5" y="5" width="2" height="2" rx="0.5"></rect>
        <rect id="Rectangle-3-Copy-8" fill="#335EEA" opacity="0.3" x="5" y="9" width="2" height="2" rx="0.5"></rect>
        <rect id="Rectangle-3-Copy-9" fill="#335EEA" opacity="0.3" x="5" y="13" width="2" height="2" rx="0.5"></rect>
        <rect id="Rectangle-3-Copy" fill="#335EEA" opacity="0.3" x="9" y="5" width="2" height="2" rx="0.5"></rect>
        <rect id="Rectangle-3-Copy-2" fill="#335EEA" opacity="0.3" x="13" y="5" width="2" height="2" rx="0.5"></rect>
        <rect id="Rectangle-3-Copy-3" fill="#335EEA" opacity="0.3" x="17" y="5" width="2" height="2" rx="0.5"></rect>
        <rect id="Rectangle-3-Copy-10" fill="#335EEA" opacity="0.3" x="17" y="9" width="2" height="2" rx="0.5"></rect>
        <rect id="Rectangle-3-Copy-11" fill="#335EEA" opacity="0.3" x="17" y="13" width="2" height="2" rx="0.5"></rect>
        <rect id="Rectangle-3-Copy-7" fill="#335EEA" opacity="0.3" x="5" y="17" width="2" height="2" rx="0.5"></rect>
        <rect id="Rectangle-3-Copy-6" fill="#335EEA" opacity="0.3" x="9" y="17" width="2" height="2" rx="0.5"></rect>
        <rect id="Rectangle-3-Copy-5" fill="#335EEA" opacity="0.3" x="13" y="17" width="2" height="2" rx="0.5"></rect>
        <rect id="Rectangle-3-Copy-4" fill="#335EEA" opacity="0.3" x="17" y="17" width="2" height="2" rx="0.5"></rect>
    </g>
</svg>

<svg width="24" height="24" viewBox="0 0 24 24" xmlns="http://www.w3.org/2000/svg"><g fill="none" fill-rule="evenodd"><path d="M0 0h24v24H0z"/><rect fill="#335EEA" opacity=".3" x="3" y="3" width="18" height="18" rx="1"/><path d="M11 11v2h2v-2h-2zm-1-2h4a1 1 0 011 1v4a1 1 0 01-1 1h-4a1 1 0 01-1-1v-4a1 1 0 011-1z" fill="#335EEA" opacity=".3"/><rect fill="#335EEA" opacity=".3" x="5" y="5" width="2" height="2" rx=".5"/><rect fill="#335EEA" opacity=".3" x="5" y="9" width="2" height="2" rx=".5"/><rect fill="#335EEA" opacity=".3" x="5" y="13" width="2" height="2" rx=".5"/><rect fill="#335EEA" opacity=".3" x="9" y="5" width="2" height="2" rx=".5"/><rect fill="#335EEA" opacity=".3" x="13" y="5" width="2" height="2" rx=".5"/><rect fill="#335EEA" opacity=".3" x="17" y="5" width="2" height="2" rx=".5"/><rect fill="#335EEA" opacity=".3" x="17" y="9" width="2" height="2" rx=".5"/><rect fill="#335EEA" opacity=".3" x="17" y="13" width="2" height="2" rx=".5"/><rect fill="#335EEA" opacity=".3" x="5" y="17" width="2" height="2" rx=".5"/><rect fill="#335EEA" opacity=".3" x="9" y="17" width="2" height="2" rx=".5"/><rect fill="#335EEA" opacity=".3" x="13" y="17" width="2" height="2" rx=".5"/><rect fill="#335EEA" opacity=".3" x="17" y="17" width="2" height="2" rx=".5"/></g></svg>
